; generated by PrusaSlicer 2.2.0+win64 on 2020-07-17 at 19:39:04 UTC

; 

; external perimeters extrusion width = 0.45mm
; perimeters extrusion width = 0.45mm
; infill extrusion width = 0.45mm
; solid infill extrusion width = 0.45mm
; top infill extrusion width = 0.40mm
; support material extrusion width = 0.35mm
; first layer extrusion width = 0.42mm

M73 P0 R59
M73 Q0 S59
M201 X1000 Y1000 Z200 E5000 ; sets maximum accelerations, mm/sec^2
M203 X200 Y200 Z12 E120 ; sets maximum feedrates, mm/sec
M204 P1250 R1250 T1250 ; sets acceleration (P, T) and retract acceleration (R), mm/sec^2
M205 X8.00 Y8.00 Z0.40 E4.50 ; sets the jerk limits, mm/sec
M205 S0 T0 ; sets the minimum extruding and travel feed rate, mm/sec
M107
M862.3 P "MK3SMMU2S" ; printer model check
M862.1 P0.4 ; nozzle diameter check
M115 U3.9.0 ; tell printer latest fw version
G90 ; use absolute coordinates
M83 ; extruder relative mode
M104 S215 ; set extruder temp
M140 S60 ; set bed temp
Tx
M190 S60 ; wait for bed temp
M109 S215 ; wait for extruder temp
G28 W ; home all without mesh bed level
G80 ; mesh bed leveling

;go outside print area
G1 Y-3.0 F1000.0
G1 Z0.4 F1000.0
; select extruder
Tc
; purge line
G1 X55.0 F2000.0
G1 Z0.3 F1000.0
G92 E0.0
G1 X240.0 E25.0 F2200.0
M73 Q0 S59
M73 P0 R59
G1 Y-2.0 F1000.0
G1 X55.0 E25 F1400.0
G1 Z0.20 F1000.0
G1 X5.0 E4.0 F1000.0

M221 S95
G92 E0.0
G21 ; set units to millimeters
G90 ; use absolute coordinates
M83 ; use relative distances for extrusion
M900 K0.06 ; Filament gcode LA 1.5
M900 K30 ; Filament gcode LA 1.0
;BEFORE_LAYER_CHANGE
G92 E0.0
;0.2


G1 E-0.80000 F2100.00000
G1 Z0.600 F10800.000
;AFTER_LAYER_CHANGE
;0.2
G1 X81.369 Y96.579
G1 Z0.200
G1 E0.80000 F2100.00000
M204 S1000
G1 F1200.000
G1 X81.568 Y96.009 E0.01894
G1 X81.904 Y95.507 E0.01894
G1 X86.159 Y90.963 E0.19520
G1 X86.590 Y90.607 E0.01752
G1 X87.190 Y90.330 E0.02071
G1 X87.839 Y90.228 E0.02060
G1 X118.388 Y90.058 E0.95787
G1 X126.030 Y90.230 E0.23969
G1 X126.862 Y90.419 E0.02673
G1 X127.445 Y90.775 E0.02142
G1 X130.268 Y93.243 E0.11757
G1 X132.540 Y96.104 E0.11457
G1 X132.751 Y96.634 E0.01787
G1 X132.829 Y97.199 E0.01787
G1 X132.827 Y112.725 E0.48682
G1 X132.735 Y113.284 E0.01775
G1 X132.514 Y113.805 E0.01775
G1 X132.176 Y114.259 E0.01775
G1 X131.740 Y114.620 E0.01775
G1 X110.697 Y128.127 E0.78400
G1 X109.823 Y128.494 E0.02974
G1 X109.090 Y128.646 E0.02346
G1 X105.531 Y128.677 E0.11158
G1 X104.407 Y128.519 E0.03561
G1 X103.313 Y128.047 E0.03736
G1 X82.383 Y114.435 E0.78283
G1 X82.004 Y114.123 E0.01538
G1 X81.697 Y113.741 E0.01538
G1 X81.420 Y113.145 E0.02060
G1 X81.318 Y112.496 E0.02060
G1 X81.369 Y96.639 E0.49717
G1 F8640.000
G1 X81.568 Y96.009 E-0.15263
G1 X81.904 Y95.507 E-0.13946
G1 X83.289 Y94.028 E-0.46791
G1 E-0.04000 F2100.00000
G1 Z0.800 F10800.000
G1 X83.694 Y97.071
G1 Z0.200
G1 E0.80000 F2100.00000
G1 F1200.000
G1 X83.694 Y112.452 E0.48228
G1 X84.449 Y112.452 E0.02365
G1 X84.449 Y97.241 E0.47696
G1 X85.203 Y97.241 E0.02365
G1 X85.203 Y112.452 E0.47696
G1 X85.957 Y112.452 E0.02365
G1 X85.957 Y94.923 E0.54963
G1 X86.711 Y94.923 E0.02365
G1 X86.711 Y112.452 E0.54963
G1 X87.465 Y112.452 E0.02365
G1 X87.465 Y94.923 E0.54963
G1 X87.878 Y94.923 E0.01295
G1 X87.878 Y92.605 E0.07267
G1 X88.219 Y92.605 E0.01069
G1 X88.219 Y112.452 E0.62230
G1 X88.974 Y112.452 E0.02365
G1 X88.974 Y92.605 E0.62230
G1 X89.728 Y92.605 E0.02365
G1 X89.728 Y112.452 E0.62230
G1 X90.482 Y112.452 E0.02365
G1 X90.482 Y92.605 E0.62230
G1 X91.236 Y92.605 E0.02365
G1 X91.236 Y112.622 E0.62762
G1 F8640.000
G1 X91.236 Y109.331 E-0.76000
G1 E-0.04000 F2100.00000
G1 Z0.800 F10800.000
G1 X91.990 Y97.056
G1 Z0.200
G1 E0.80000 F2100.00000
G1 F1200.000
G1 X91.990 Y92.605 E0.13956
G1 X92.744 Y92.605 E0.02365
G1 X92.744 Y96.886 E0.13424
G1 X93.499 Y96.886 E0.02365
G1 X93.499 Y92.605 E0.13424
G1 X94.253 Y92.605 E0.02365
G1 X94.253 Y96.886 E0.13424
G1 X95.007 Y96.886 E0.02365
G1 X95.007 Y92.605 E0.13424
G1 X95.761 Y92.605 E0.02365
G1 X95.761 Y97.056 E0.13956
G1 F8640.000
G1 X95.761 Y93.765 E-0.76000
G1 E-0.04000 F2100.00000
G1 Z0.800 F10800.000
G1 X118.386 Y92.435
G1 Z0.200
G1 E0.80000 F2100.00000
G1 F1200.000
G1 X118.386 Y96.886 E0.13956
G1 X119.140 Y96.886 E0.02365
G1 X119.140 Y92.605 E0.13424
G1 X119.894 Y92.605 E0.02365
G1 X119.894 Y96.886 E0.13424
G1 X120.648 Y96.886 E0.02365
G1 X120.648 Y92.605 E0.13424
G1 X121.402 Y92.605 E0.02365
G1 X121.402 Y96.886 E0.13424
G1 X122.157 Y96.886 E0.02365
G1 X122.157 Y92.605 E0.13424
G1 X122.911 Y92.605 E0.02365
G1 X122.911 Y112.452 E0.62230
G1 X123.665 Y112.452 E0.02365
G1 X123.665 Y92.605 E0.62230
G1 X124.419 Y92.605 E0.02365
G1 X124.419 Y112.452 E0.62230
G1 X125.173 Y112.452 E0.02365
G1 X125.173 Y92.605 E0.62230
G1 X125.927 Y92.605 E0.02365
G1 X125.927 Y112.452 E0.62230
G1 X126.682 Y112.452 E0.02365
G1 X126.682 Y94.923 E0.54963
G1 X127.436 Y94.923 E0.02365
G1 X127.436 Y112.452 E0.54963
G1 X128.190 Y112.452 E0.02365
G1 X128.190 Y94.923 E0.54963
G1 X128.586 Y94.923 E0.01243
G1 X128.586 Y97.241 E0.07267
G1 X128.944 Y97.241 E0.01122
G1 X128.944 Y112.452 E0.47696
G1 X129.698 Y112.452 E0.02365
G1 X129.698 Y97.241 E0.47696
G1 X130.452 Y97.241 E0.02365
G1 X130.452 Y112.622 E0.48228
G1 F8640.000
G1 X130.452 Y109.331 E-0.76000
G1 E-0.04000 F2100.00000
G1 Z0.800 F10800.000
G1 X109.405 Y121.675
G1 Z0.200
G1 E0.80000 F2100.00000
G1 F1200.000
G1 X109.487 Y122.300 E0.01976
G1 X109.405 Y122.925 E0.01976
G1 X109.164 Y123.507 E0.01976
G1 X108.780 Y124.007 E0.01976
G1 X108.280 Y124.390 E0.01976
G1 X107.698 Y124.631 E0.01976
G1 X107.073 Y124.714 E0.01976
G1 X106.449 Y124.631 E0.01976
G1 X105.867 Y124.390 E0.01976
G1 X105.367 Y124.007 E0.01976
G1 X104.983 Y123.507 E0.01976
G1 X104.742 Y122.925 E0.01976
G1 X104.660 Y122.300 E0.01976
G1 X104.742 Y121.675 E0.01976
G1 X104.983 Y121.093 E0.01976
G1 X105.367 Y120.593 E0.01975
G1 X105.867 Y120.210 E0.01976
G1 X106.449 Y119.969 E0.01976
G1 X107.073 Y119.886 E0.01976
G1 X107.698 Y119.969 E0.01976
G1 X108.280 Y120.210 E0.01976
G1 X108.780 Y120.593 E0.01976
G1 X109.164 Y121.093 E0.01976
G1 X109.382 Y121.620 E0.01787
G1 X109.791 Y121.779 F10800.000
G1 F8640.000
G1 X109.487 Y122.300 E-0.15890
G1 X109.405 Y122.925 E-0.14548
G1 X109.164 Y123.507 E-0.14548
G1 X108.780 Y124.007 E-0.14548
G1 X108.280 Y124.390 E-0.14548
G1 X108.203 Y124.422 E-0.01917
G1 E-0.04000 F2100.00000
G1 Z0.800 F10800.000
G1 X109.786 Y122.915
G1 Z0.200
G1 E0.80000 F2100.00000
G1 F1200.000
G1 X109.786 Y124.274 E0.04262
G1 X109.774 Y124.458 E0.00578
G1 X109.692 Y124.763 E0.00991
G1 X109.534 Y125.037 E0.00991
G1 X109.311 Y125.261 E0.00991
G1 X109.037 Y125.419 E0.00991
G1 X108.887 Y125.470 E0.00497
G1 X108.548 Y125.513 E0.01072
G1 X105.415 Y125.501 E0.09821
G1 X105.110 Y125.419 E0.00991
G1 X104.836 Y125.261 E0.00991
G1 X104.612 Y125.037 E0.00991
G1 X104.454 Y124.763 E0.00991
G1 X104.403 Y124.613 E0.00497
G1 X104.360 Y124.274 E0.01072
G1 X104.360 Y122.915 E0.04262
G1 X104.375 Y123.023 E0.00342
G1 X104.654 Y123.697 E0.02287
G1 X105.098 Y124.276 E0.02287
G1 X105.676 Y124.720 E0.02287
G1 X106.350 Y124.999 E0.02287
G1 X107.073 Y125.094 E0.02287
G1 X107.796 Y124.999 E0.02287
G1 X108.470 Y124.720 E0.02287
G1 X109.049 Y124.276 E0.02287
G1 X109.493 Y123.697 E0.02287
G1 X109.778 Y122.974 E0.02436
G1 F8640.000
G1 X109.786 Y124.274 E-0.30015
G1 X109.774 Y124.458 E-0.04255
G1 X109.692 Y124.763 E-0.07301
G1 X109.534 Y125.037 E-0.07301
G1 X109.311 Y125.261 E-0.07301
G1 X109.037 Y125.419 E-0.07301
G1 X108.887 Y125.470 E-0.03658
G1 X108.548 Y125.513 E-0.07896
G1 X108.506 Y125.513 E-0.00972
G1 E-0.04000 F2100.00000
G1 Z0.800 F10800.000
G1 X107.570 Y110.903
G1 Z0.200
G1 E0.80000 F2100.00000
G1 F1200.000
G1 X107.073 Y110.969 E0.01571
G1 X106.577 Y110.903 E0.01571
G1 X106.114 Y110.712 E0.01571
G1 X105.717 Y110.407 E0.01571
G1 X105.412 Y110.009 E0.01571
G1 X105.220 Y109.547 E0.01571
G1 X105.155 Y109.050 E0.01571
G1 X105.220 Y108.553 E0.01571
G1 X105.412 Y108.091 E0.01571
G1 X105.717 Y107.693 E0.01571
G1 X106.114 Y107.388 E0.01571
G1 X106.577 Y107.196 E0.01571
G1 X107.073 Y107.131 E0.01571
G1 X107.570 Y107.196 E0.01571
G1 X108.033 Y107.388 E0.01571
G1 X108.430 Y107.693 E0.01571
G1 X108.735 Y108.091 E0.01571
G1 X108.927 Y108.553 E0.01571
G1 X108.992 Y109.050 E0.01571
G1 X108.927 Y109.547 E0.01571
G1 X108.735 Y110.009 E0.01571
G1 X108.430 Y110.407 E0.01571
G1 X108.033 Y110.712 E0.01571
G1 X107.625 Y110.880 E0.01382
G1 X107.481 Y110.532 F10800.000
G1 F1200.000
G1 X107.073 Y110.589 E0.01291
G1 X106.675 Y110.536 E0.01259
G1 X106.304 Y110.382 E0.01259
G1 X105.985 Y110.138 E0.01259
G1 X105.741 Y109.819 E0.01259
G1 X105.587 Y109.448 E0.01259
G1 X105.535 Y109.050 E0.01259
G1 X105.587 Y108.652 E0.01259
G1 X105.741 Y108.281 E0.01259
G1 X105.985 Y107.962 E0.01259
G1 X106.304 Y107.718 E0.01259
G1 X106.675 Y107.564 E0.01259
G1 X107.073 Y107.511 E0.01259
G1 X107.472 Y107.564 E0.01259
G1 X107.843 Y107.718 E0.01259
G1 X108.161 Y107.962 E0.01259
G1 X108.406 Y108.281 E0.01259
G1 X108.560 Y108.652 E0.01259
G1 X108.612 Y109.050 E0.01259
G1 X108.560 Y109.448 E0.01259
G1 X108.406 Y109.819 E0.01259
G1 X108.161 Y110.138 E0.01259
G1 X107.843 Y110.382 E0.01259
G1 X107.537 Y110.509 E0.01039
G1 X107.380 Y110.919 F10800.000
G1 F8640.000
G1 X107.073 Y110.589 E-0.10851
G1 X106.675 Y110.536 E-0.09274
G1 X106.304 Y110.382 E-0.09274
G1 X105.985 Y110.138 E-0.09274
G1 X105.741 Y109.819 E-0.09274
G1 X105.587 Y109.448 E-0.09274
G1 X105.535 Y109.050 E-0.09274
G1 X105.587 Y108.652 E-0.09274
G1 X105.591 Y108.643 E-0.00231
G1 E-0.04000 F2100.00000
G1 Z0.800 F10800.000
G1 X107.073 Y106.969
G1 Z0.200
G1 E0.80000 F2100.00000
G1 F1200.000
G1 X106.577 Y106.903 E0.01571
G1 X106.114 Y106.712 E0.01571
G1 X105.717 Y106.407 E0.01571
G1 X105.412 Y106.009 E0.01571
G1 X105.220 Y105.547 E0.01571
G1 X105.155 Y105.050 E0.01571
G1 X105.220 Y104.553 E0.01571
G1 X105.412 Y104.091 E0.01571
G1 X105.717 Y103.693 E0.01571
G1 X106.114 Y103.388 E0.01571
G1 X106.577 Y103.196 E0.01571
G1 X107.073 Y103.131 E0.01571
G1 X107.570 Y103.196 E0.01571
G1 X108.033 Y103.388 E0.01571
G1 X108.430 Y103.693 E0.01571
G1 X108.735 Y104.091 E0.01571
G1 X108.927 Y104.553 E0.01571
G1 X108.992 Y105.050 E0.01571
G1 X108.927 Y105.547 E0.01571
G1 X108.735 Y106.009 E0.01571
G1 X108.430 Y106.407 E0.01571
G1 X108.033 Y106.712 E0.01571
G1 X107.570 Y106.903 E0.01571
G1 X107.133 Y106.961 E0.01382
G1 X107.084 Y106.587 F10800.000
G1 F1200.000
G1 X106.675 Y106.536 E0.01291
G1 X106.304 Y106.382 E0.01259
G1 X105.985 Y106.138 E0.01259
G1 X105.741 Y105.819 E0.01259
G1 X105.587 Y105.448 E0.01259
G1 X105.535 Y105.050 E0.01259
G1 X105.587 Y104.652 E0.01259
G1 X105.741 Y104.281 E0.01259
G1 X105.985 Y103.962 E0.01259
G1 X106.304 Y103.718 E0.01259
G1 X106.675 Y103.564 E0.01259
G1 X107.073 Y103.511 E0.01259
G1 X107.472 Y103.564 E0.01259
G1 X107.843 Y103.718 E0.01259
G1 X108.161 Y103.962 E0.01259
G1 X108.406 Y104.281 E0.01259
G1 X108.560 Y104.652 E0.01259
G1 X108.612 Y105.050 E0.01259
G1 X108.560 Y105.448 E0.01259
G1 X108.406 Y105.819 E0.01259
G1 X108.161 Y106.138 E0.01259
G1 X107.843 Y106.382 E0.01259
G1 X107.472 Y106.536 E0.01259
G1 X107.143 Y106.579 E0.01039
G1 X106.885 Y106.935 F10800.000
G1 F8640.000
G1 X106.675 Y106.536 E-0.10851
G1 X106.304 Y106.382 E-0.09274
G1 X105.985 Y106.138 E-0.09274
G1 X105.741 Y105.819 E-0.09274
G1 X105.587 Y105.448 E-0.09274
G1 X105.535 Y105.050 E-0.09274
G1 X105.587 Y104.652 E-0.09274
G1 X105.741 Y104.281 E-0.09274
G1 X105.747 Y104.273 E-0.00231
G1 E-0.04000 F2100.00000
G1 Z0.800 F10800.000
G1 X107.073 Y102.969
G1 Z0.200
G1 E0.80000 F2100.00000
G1 F1200.000
G1 X106.577 Y102.903 E0.01571
G1 X106.114 Y102.712 E0.01571
G1 X105.717 Y102.407 E0.01571
G1 X105.412 Y102.009 E0.01571
G1 X105.220 Y101.547 E0.01571
G1 X105.155 Y101.050 E0.01571
G1 X105.220 Y100.553 E0.01571
G1 X105.412 Y100.091 E0.01571
G1 X105.717 Y99.693 E0.01571
G1 X106.114 Y99.388 E0.01571
G1 X106.577 Y99.196 E0.01571
G1 X107.073 Y99.131 E0.01571
G1 X107.570 Y99.196 E0.01571
G1 X108.033 Y99.388 E0.01571
G1 X108.430 Y99.693 E0.01571
G1 X108.735 Y100.091 E0.01571
G1 X108.927 Y100.553 E0.01571
G1 X108.992 Y101.050 E0.01571
G1 X108.927 Y101.547 E0.01571
G1 X108.735 Y102.009 E0.01571
G1 X108.430 Y102.407 E0.01571
G1 X108.033 Y102.712 E0.01571
G1 X107.570 Y102.903 E0.01571
G1 X107.133 Y102.961 E0.01382
G1 X107.084 Y102.587 F10800.000
G1 F1200.000
G1 X106.675 Y102.536 E0.01291
G1 X106.304 Y102.382 E0.01259
G1 X105.985 Y102.138 E0.01259
G1 X105.741 Y101.819 E0.01259
G1 X105.587 Y101.448 E0.01259
G1 X105.535 Y101.050 E0.01259
G1 X105.587 Y100.652 E0.01259
G1 X105.741 Y100.281 E0.01259
G1 X105.985 Y99.962 E0.01259
G1 X106.304 Y99.718 E0.01259
G1 X106.675 Y99.564 E0.01259
G1 X107.073 Y99.511 E0.01259
G1 X107.472 Y99.564 E0.01259
G1 X107.843 Y99.718 E0.01259
G1 X108.161 Y99.962 E0.01259
G1 X108.406 Y100.281 E0.01259
G1 X108.560 Y100.652 E0.01259
G1 X108.612 Y101.050 E0.01259
G1 X108.560 Y101.448 E0.01259
G1 X108.406 Y101.819 E0.01259
G1 X108.161 Y102.138 E0.01259
G1 X107.843 Y102.382 E0.01259
G1 X107.472 Y102.536 E0.01259
G1 X107.143 Y102.579 E0.01039
G1 X106.885 Y102.935 F10800.000
G1 F8640.000
G1 X106.675 Y102.536 E-0.10851
G1 X106.304 Y102.382 E-0.09274
G1 X105.985 Y102.138 E-0.09274
G1 X105.741 Y101.819 E-0.09274
G1 X105.587 Y101.448 E-0.09274
G1 X105.535 Y101.050 E-0.09274
G1 X105.587 Y100.652 E-0.09274
G1 X105.741 Y100.281 E-0.09274
G1 X105.747 Y100.273 E-0.00231
G1 E-0.04000 F2100.00000
G1 Z0.800 F10800.000
G1 X103.927 Y101.547
G1 Z0.200
G1 E0.80000 F2100.00000
G1 F1200.000
G1 X103.735 Y102.009 E0.01571
G1 X103.430 Y102.407 E0.01571
G1 X103.033 Y102.712 E0.01571
G1 X102.570 Y102.903 E0.01571
G1 X102.073 Y102.969 E0.01571
G1 X101.577 Y102.903 E0.01571
G1 X101.114 Y102.712 E0.01571
G1 X100.717 Y102.407 E0.01571
G1 X100.412 Y102.009 E0.01571
G1 X100.220 Y101.547 E0.01571
G1 X100.155 Y101.050 E0.01571
G1 X100.220 Y100.553 E0.01571
G1 X100.412 Y100.091 E0.01571
G1 X100.717 Y99.693 E0.01571
G1 X101.114 Y99.388 E0.01571
G1 X101.577 Y99.196 E0.01571
G1 X102.073 Y99.131 E0.01571
G1 X102.570 Y99.196 E0.01571
G1 X103.033 Y99.388 E0.01571
G1 X103.430 Y99.693 E0.01571
G1 X103.735 Y100.091 E0.01571
G1 X103.927 Y100.553 E0.01571
G1 X103.992 Y101.050 E0.01571
G1 X103.935 Y101.487 E0.01382
G1 X103.561 Y101.438 F10800.000
G1 F1200.000
G1 X103.406 Y101.819 E0.01291
G1 X103.161 Y102.138 E0.01259
G1 X102.843 Y102.382 E0.01259
G1 X102.472 Y102.536 E0.01259
G1 X102.073 Y102.589 E0.01259
G1 X101.675 Y102.536 E0.01259
G1 X101.304 Y102.382 E0.01259
G1 X100.985 Y102.138 E0.01259
G1 X100.741 Y101.819 E0.01259
G1 X100.587 Y101.448 E0.01259
G1 X100.535 Y101.050 E0.01259
G1 X100.587 Y100.652 E0.01259
G1 X100.741 Y100.281 E0.01259
G1 X100.985 Y99.962 E0.01259
G1 X101.304 Y99.718 E0.01259
G1 X101.675 Y99.564 E0.01259
G1 X102.073 Y99.511 E0.01259
G1 X102.472 Y99.564 E0.01259
G1 X102.843 Y99.718 E0.01259
G1 X103.161 Y99.962 E0.01259
G1 X103.406 Y100.281 E0.01259
G1 X103.560 Y100.652 E0.01259
G1 X103.612 Y101.050 E0.01259
G1 X103.569 Y101.378 E0.01039
G1 X103.845 Y101.719 F10800.000
G1 F8640.000
G1 X103.406 Y101.819 E-0.10851
G1 X103.161 Y102.138 E-0.09274
G1 X102.843 Y102.382 E-0.09274
G1 X102.472 Y102.536 E-0.09274
G1 X102.073 Y102.589 E-0.09274
G1 X101.675 Y102.536 E-0.09274
G1 X101.304 Y102.382 E-0.09274
G1 X100.985 Y102.138 E-0.09274
G1 X100.979 Y102.130 E-0.00231
G1 E-0.04000 F2100.00000
G1 Z0.800 F10800.000
G1 X102.570 Y103.196
G1 Z0.200
G1 E0.80000 F2100.00000
G1 F1200.000
G1 X103.033 Y103.388 E0.01571
G1 X103.430 Y103.693 E0.01571
G1 X103.735 Y104.091 E0.01571
G1 X103.927 Y104.553 E0.01571
G1 X103.992 Y105.050 E0.01571
G1 X103.927 Y105.547 E0.01571
G1 X103.735 Y106.009 E0.01571
G1 X103.430 Y106.407 E0.01571
G1 X103.033 Y106.712 E0.01571
G1 X102.570 Y106.903 E0.01571
G1 X102.073 Y106.969 E0.01571
G1 X101.577 Y106.903 E0.01571
G1 X101.114 Y106.712 E0.01571
G1 X100.717 Y106.407 E0.01571
G1 X100.412 Y106.009 E0.01571
G1 X100.220 Y105.547 E0.01571
G1 X100.155 Y105.050 E0.01571
G1 X100.220 Y104.553 E0.01571
G1 X100.412 Y104.091 E0.01571
G1 X100.717 Y103.693 E0.01571
G1 X101.114 Y103.388 E0.01571
G1 X101.577 Y103.196 E0.01571
G1 X102.073 Y103.131 E0.01571
G1 X102.511 Y103.189 E0.01382
G1 X102.461 Y103.563 F10800.000
