; generated by PrusaSlicer 2.2.0+win64 on 2020-06-15 at 19:42:03 UTC

; 

; external perimeters extrusion width = 0.45mm
; perimeters extrusion width = 0.45mm
; infill extrusion width = 0.45mm
; solid infill extrusion width = 0.45mm
; top infill extrusion width = 0.40mm
; first layer extrusion width = 0.42mm

M73 P0 R75
M73 Q0 S76
M201 X1000 Y1000 Z200 E5000 ; sets maximum accelerations, mm/sec^2
M203 X200 Y200 Z12 E120 ; sets maximum feedrates, mm/sec
M204 P1250 R1250 T1250 ; sets acceleration (P, T) and retract acceleration (R), mm/sec^2
M205 X8.00 Y8.00 Z0.40 E4.50 ; sets the jerk limits, mm/sec
M205 S0 T0 ; sets the minimum extruding and travel feed rate, mm/sec
M107
M862.3 P "MK3SMMU2S" ; printer model check
M862.1 P0.4 ; nozzle diameter check
M115 U3.9.0 ; tell printer latest fw version
G90 ; use absolute coordinates
M83 ; extruder relative mode
M104 S215 ; set extruder temp
M140 S60 ; set bed temp
Tx
M190 S60 ; wait for bed temp
M109 S215 ; wait for extruder temp
G28 W ; home all without mesh bed level
G80 ; mesh bed leveling

;go outside print area
G1 Y-3.0 F1000.0
G1 Z0.4 F1000.0
; select extruder
Tc
; purge line
G1 X55.0 F2000.0
G1 Z0.3 F1000.0
G92 E0.0
G1 X240.0 E25.0 F2200.0
M73 Q0 S76
M73 P0 R75
G1 Y-2.0 F1000.0
G1 X55.0 E25 F1400.0
G1 Z0.20 F1000.0
G1 X5.0 E4.0 F1000.0

M221 S95
G92 E0.0
G21 ; set units to millimeters
G90 ; use absolute coordinates
M83 ; use relative distances for extrusion
M900 K0.06 ; Filament gcode LA 1.5
M900 K30 ; Filament gcode LA 1.0
;BEFORE_LAYER_CHANGE
G92 E0.0
;0.2


G1 E-0.80000 F2100.00000
G1 Z0.600 F10800.000
;AFTER_LAYER_CHANGE
;0.2
G1 X141.738 Y77.394
G1 Z0.200
G1 E0.80000 F2100.00000
M204 S1000
G1 F1200.000
G1 X142.199 Y78.146 E0.02767
G1 X142.353 Y78.981 E0.02661
G1 X142.343 Y131.710 E1.65329
G1 X142.222 Y132.267 E0.01787
G1 X141.975 Y132.776 E0.01775
G1 X141.611 Y133.215 E0.01787
G1 X141.156 Y133.553 E0.01775
G1 X118.600 Y145.274 E0.79703
G1 X117.723 Y145.462 E0.02813
G1 X109.952 Y145.453 E0.24365
G1 X109.323 Y145.306 E0.02024
G1 X108.760 Y144.998 E0.02012
G1 X108.298 Y144.547 E0.02024
G1 X107.975 Y143.993 E0.02012
G1 X104.534 Y132.764 E0.36824
G1 X104.390 Y131.986 E0.02479
G1 X104.370 Y123.225 E0.27471
G1 X104.641 Y69.774 E1.67594
G1 X104.950 Y68.555 E0.03941
G1 X105.320 Y67.849 E0.02500
G1 X105.676 Y67.372 E0.01865
G1 X106.574 Y66.580 E0.03756
G1 X107.067 Y66.298 E0.01780
G1 X107.795 Y66.018 E0.02445
G1 X108.948 Y65.849 E0.03653
G1 X117.348 Y65.849 E0.26337
G1 X118.356 Y65.967 E0.03183
G1 X119.273 Y66.298 E0.03057
G1 X141.031 Y76.859 E0.75832
G1 X141.690 Y77.357 E0.02590
G1 F8640.000
G1 X142.199 Y78.146 E-0.21669
G1 X142.353 Y78.981 E-0.19595
G1 X142.353 Y80.485 E-0.34735
G1 E-0.04000 F2100.00000
G1 Z0.800 F10800.000
G1 X118.310 Y128.723
G1 Z0.200
G1 E0.80000 F2100.00000
G1 F1200.000
G1 X118.310 Y131.645 E0.09162
G1 X118.269 Y131.977 E0.01048
G1 X118.221 Y132.124 E0.00485
G1 X118.069 Y132.393 E0.00969
G1 X117.855 Y132.616 E0.00969
G1 X117.591 Y132.777 E0.00969
G1 X116.885 Y133.039 E0.02360
G1 X116.885 Y142.299 E0.29035
G1 X116.460 Y142.299 E0.01335
G1 X116.460 Y131.686 E0.33276
G1 X116.840 Y131.343 E0.01604
G1 X117.155 Y131.001 E0.01460
G1 X117.442 Y130.633 E0.01460
G1 X117.696 Y130.243 E0.01460
G1 X117.916 Y129.833 E0.01460
G1 X118.102 Y129.406 E0.01460
G1 X118.296 Y128.781 E0.02050
G1 F8640.000
G1 X118.310 Y131.645 E-0.66127
G1 X118.269 Y131.977 E-0.07718
G1 X118.240 Y132.065 E-0.02155
G1 E-0.04000 F2100.00000
G1 Z0.800 F10800.000
G1 X118.310 Y126.093
G1 Z0.200
G1 E0.80000 F2100.00000
G1 F1200.000
G1 X118.218 Y125.750 E0.01114
G1 X118.061 Y125.312 E0.01460
G1 X117.866 Y124.888 E0.01460
G1 X117.638 Y124.483 E0.01460
G1 X117.375 Y124.098 E0.01460
G1 X117.082 Y123.736 E0.01460
G1 X116.759 Y123.400 E0.01460
G1 X116.409 Y123.093 E0.01460
G1 X116.035 Y122.815 E0.01460
G1 X115.639 Y122.571 E0.01460
G1 X115.223 Y122.360 E0.01460
G1 X114.792 Y122.185 E0.01460
G1 X114.240 Y122.023 E0.01802
G1 X117.244 Y122.033 E0.09416
G1 X117.527 Y122.103 E0.00916
G1 X117.786 Y122.239 E0.00916
G1 X117.901 Y122.329 E0.00458
G1 X118.004 Y122.433 E0.00460
G1 X118.170 Y122.673 E0.00916
G1 X118.230 Y122.806 E0.00459
G1 X118.300 Y123.090 E0.00915
G1 X118.310 Y126.033 E0.09229
G1 F8640.000
G1 X118.218 Y125.750 E-0.06875
G1 X118.061 Y125.312 E-0.10755
G1 X117.866 Y124.888 E-0.10755
G1 X117.638 Y124.483 E-0.10755
G1 X117.375 Y124.098 E-0.10755
G1 X117.082 Y123.736 E-0.10755
G1 X116.759 Y123.400 E-0.10755
G1 X116.610 Y123.269 E-0.04596
G1 E-0.04000 F2100.00000
G1 Z0.800 F10800.000
G1 X111.592 Y122.023
G1 Z0.200
G1 E0.80000 F2100.00000
G1 F1200.000
G1 X111.134 Y122.157 E0.01494
G1 X110.700 Y122.325 E0.01460
G1 X110.281 Y122.529 E0.01460
G1 X109.881 Y122.768 E0.01460
G1 X109.503 Y123.039 E0.01460
G1 X109.148 Y123.341 E0.01460
G1 X108.820 Y123.672 E0.01460
G1 X108.521 Y124.029 E0.01460
G1 X108.253 Y124.410 E0.01460
G1 X108.018 Y124.812 E0.01460
G1 X107.824 Y125.220 E0.01416
G1 X107.653 Y125.667 E0.01502
G1 X107.535 Y126.084 E0.01357
G1 X107.545 Y123.090 E0.09387
G1 X107.571 Y122.946 E0.00458
G1 X107.674 Y122.674 E0.00914
G1 X107.841 Y122.433 E0.00918
G1 X108.059 Y122.239 E0.00916
G1 X108.185 Y122.163 E0.00461
G1 X108.458 Y122.059 E0.00914
G1 X108.601 Y122.033 E0.00458
G1 X111.532 Y122.023 E0.09188
G1 F8640.000
G1 X111.134 Y122.157 E-0.09682
G1 X110.700 Y122.325 E-0.10755
G1 X110.281 Y122.529 E-0.10755
G1 X109.881 Y122.768 E-0.10755
G1 X109.503 Y123.039 E-0.10755
G1 X109.148 Y123.341 E-0.10755
G1 X108.820 Y123.672 E-0.10755
G1 X108.771 Y123.731 E-0.01789
G1 E-0.04000 F2100.00000
G1 Z0.800 F10800.000
G1 X107.535 Y128.725
G1 Z0.200
G1 E0.80000 F2100.00000
G1 F1200.000
G1 X107.713 Y129.325 E0.01964
G1 X107.892 Y129.755 E0.01460
G1 X108.106 Y130.169 E0.01460
G1 X108.354 Y130.563 E0.01460
G1 X108.635 Y130.935 E0.01460
G1 X108.945 Y131.282 E0.01460
G1 X109.284 Y131.602 E0.01460
G1 X109.637 Y131.883 E0.01416
G1 X110.035 Y132.151 E0.01502
G1 X110.443 Y132.376 E0.01463
G1 X110.868 Y132.567 E0.01460
G1 X111.307 Y132.721 E0.01460
G1 X111.758 Y132.838 E0.01460
G1 X112.217 Y132.916 E0.01460
G1 X112.667 Y132.955 E0.01416
G1 X113.146 Y132.957 E0.01502
G1 X113.611 Y132.918 E0.01463
G1 X113.885 Y132.872 E0.00871
G1 X113.885 Y142.299 E0.29556
G1 X110.960 Y142.299 E0.09174
G1 X110.960 Y141.873 E0.01335
G1 X113.460 Y141.873 E0.07839
G1 X113.460 Y134.799 E0.22181
G1 X110.960 Y134.799 E0.07839
G1 X110.960 Y132.799 E0.06271
G1 X108.601 Y132.789 E0.07394
G1 X108.318 Y132.719 E0.00915
G1 X108.185 Y132.659 E0.00459
G1 X107.944 Y132.493 E0.00916
G1 X107.841 Y132.389 E0.00459
G1 X107.674 Y132.148 E0.00918
G1 X107.571 Y131.876 E0.00914
G1 X107.545 Y131.732 E0.00458
G1 X107.535 Y128.785 E0.09240
G1 F8640.000
G1 X107.713 Y129.325 E-0.13138
G1 X107.892 Y129.755 E-0.10755
G1 X108.106 Y130.169 E-0.10755
G1 X108.354 Y130.563 E-0.10755
G1 X108.635 Y130.935 E-0.10754
G1 X108.945 Y131.282 E-0.10755
G1 X109.231 Y131.552 E-0.09088
G1 E-0.04000 F2100.00000
G1 Z0.800 F10800.000
G1 X117.263 Y133.301
G1 Z0.200
G1 E0.80000 F2100.00000
G1 F1200.000
G1 X117.263 Y142.676 E0.29395
G1 X116.083 Y142.676 E0.03700
G1 X116.083 Y131.501 E0.35039
G1 X116.573 Y131.076 E0.02035
G1 X116.868 Y130.757 E0.01361
G1 X117.134 Y130.414 E0.01361
G1 X117.371 Y130.050 E0.01361
G1 X117.577 Y129.668 E0.01361
G1 X117.750 Y129.270 E0.01361
G1 X117.889 Y128.859 E0.01361
G1 X117.993 Y128.437 E0.01361
G1 X118.061 Y128.008 E0.01361
G1 X118.093 Y127.576 E0.01361
G1 X118.088 Y127.141 E0.01361
G1 X118.048 Y126.709 E0.01361
G1 X117.971 Y126.282 E0.01361
G1 X117.858 Y125.863 E0.01361
G1 X117.711 Y125.454 E0.01361
G1 X117.530 Y125.060 E0.01361
G1 X117.317 Y124.682 E0.01361
G1 X117.073 Y124.323 E0.01361
G1 X116.799 Y123.986 E0.01361
G1 X116.498 Y123.673 E0.01361
G1 X116.172 Y123.386 E0.01361
G1 X115.823 Y123.128 E0.01361
G1 X115.454 Y122.900 E0.01361
G1 X115.067 Y122.703 E0.01361
G1 X114.665 Y122.540 E0.01361
G1 X114.250 Y122.411 E0.01361
G1 X113.826 Y122.318 E0.01361
G1 X113.396 Y122.260 E0.01361
G1 X112.963 Y122.238 E0.01361
G1 X112.529 Y122.253 E0.01361
G1 X112.098 Y122.304 E0.01361
G1 X111.672 Y122.391 E0.01361
G1 X111.256 Y122.514 E0.01361
G1 X110.851 Y122.671 E0.01361
G1 X110.461 Y122.861 E0.01361
G1 X110.088 Y123.084 E0.01361
G1 X109.735 Y123.336 E0.01361
G1 X109.405 Y123.618 E0.01361
G1 X109.099 Y123.926 E0.01361
G1 X108.821 Y124.259 E0.01361
G1 X108.571 Y124.614 E0.01361
G1 X108.352 Y124.989 E0.01361
G1 X108.171 Y125.368 E0.01318
G1 X108.011 Y125.786 E0.01403
G1 X107.892 Y126.204 E0.01362
G1 X107.809 Y126.630 E0.01361
G1 X107.761 Y127.062 E0.01361
G1 X107.750 Y127.496 E0.01361
G1 X107.776 Y127.929 E0.01361
G1 X107.837 Y128.359 E0.01361
G1 X107.935 Y128.782 E0.01361
G1 X108.067 Y129.195 E0.01361
G1 X108.234 Y129.596 E0.01361
G1 X108.434 Y129.981 E0.01361
G1 X108.665 Y130.349 E0.01361
G1 X108.926 Y130.695 E0.01361
G1 X109.216 Y131.019 E0.01361
G1 X109.531 Y131.317 E0.01361
G1 X109.860 Y131.579 E0.01318
G1 X110.231 Y131.829 E0.01403
G1 X110.611 Y132.039 E0.01362
G1 X111.008 Y132.216 E0.01361
G1 X111.417 Y132.360 E0.01361
G1 X111.837 Y132.469 E0.01361
G1 X112.265 Y132.542 E0.01361
G1 X112.684 Y132.578 E0.01318
G1 X113.132 Y132.579 E0.01403
G1 X113.565 Y132.544 E0.01362
G1 X113.995 Y132.471 E0.01368
G1 X114.263 Y132.397 E0.00871
G1 X114.263 Y142.676 E0.32227
G1 X110.583 Y142.676 E0.11538
G1 X110.583 Y141.496 E0.03700
G1 X113.083 Y141.496 E0.07839
G1 X113.083 Y135.176 E0.19816
G1 X110.583 Y135.176 E0.07839
G1 X110.583 Y133.176 E0.06271
G1 X108.760 Y133.176 E0.05715
G1 X108.367 Y133.129 E0.01240
G1 X108.009 Y132.993 E0.01201
G1 X107.694 Y132.775 E0.01201
G1 X107.439 Y132.488 E0.01203
G1 X107.261 Y132.149 E0.01200
G1 X107.170 Y131.777 E0.01201
G1 X107.158 Y131.574 E0.00640
G1 X107.158 Y123.248 E0.26104
G1 X107.170 Y123.044 E0.00640
G1 X107.261 Y122.672 E0.01201
G1 X107.440 Y122.333 E0.01201
G1 X107.694 Y122.046 E0.01202
G1 X107.845 Y121.928 E0.00601
G1 X108.184 Y121.750 E0.01201
G1 X108.556 Y121.658 E0.01201
G1 X108.760 Y121.646 E0.00640
G1 X117.087 Y121.646 E0.26108
G1 X117.289 Y121.658 E0.00636
G1 X117.661 Y121.750 E0.01201
G1 X118.000 Y121.928 E0.01201
G1 X118.287 Y122.182 E0.01202
G1 X118.406 Y122.333 E0.00603
G1 X118.584 Y122.672 E0.01200
G1 X118.675 Y123.044 E0.01201
G1 X118.688 Y123.248 E0.00640
G1 X118.688 Y131.657 E0.26366
G1 X118.674 Y131.873 E0.00678
G1 X118.635 Y132.072 E0.00637
G1 X118.571 Y132.265 E0.00637
G1 X118.483 Y132.448 E0.00637
G1 X118.373 Y132.619 E0.00637
G1 X118.241 Y132.774 E0.00637
G1 X118.091 Y132.911 E0.00637
G1 X117.925 Y133.027 E0.00637
G1 X117.745 Y133.122 E0.00637
G1 X117.319 Y133.280 E0.01425
G1 X116.866 Y133.353 F10800.000
G1 F8640.000
G1 X117.299 Y136.571 E-0.76000
G1 E-0.04000 F2100.00000
G1 Z0.800 F10800.000
G1 X116.573 Y132.240
G1 Z0.200
G1 E0.80000 F2100.00000
G1 F1200.000
G1 X117.020 Y132.687 E0.02007
G1 X117.414 Y132.541 E0.01332
G1 X116.742 Y131.870 E0.03011
G1 X116.742 Y131.812 E0.00184
G1 X116.996 Y131.583 E0.01082
G1 X117.743 Y132.330 E0.03353
G1 X117.771 Y132.308 E0.00115
G1 X117.836 Y132.231 E0.00319
G1 X117.959 Y132.007 E0.00811
G1 X117.258 Y131.306 E0.03144
G1 X117.505 Y131.013 E0.01215
G1 X118.028 Y131.536 E0.02348
G1 X118.028 Y130.996 E0.01712
G1 X117.734 Y130.703 E0.01318
G1 X117.946 Y130.375 E0.01238
G1 X118.197 Y130.626 E0.01128
G1 F8640.000
G1 X117.946 Y130.375 E-0.08209
G1 X117.734 Y130.703 E-0.09011
G1 X118.028 Y130.996 E-0.09592
G1 X118.028 Y131.536 E-0.12461
G1 X117.505 Y131.013 E-0.17084
G1 X117.258 Y131.306 E-0.08845
G1 X117.589 Y131.637 E-0.10799
G1 E-0.04000 F2100.00000
G1 Z0.800 F10800.000
G1 X118.334 Y128.536
G1 Z0.200
G1 E0.80000 F2100.00000
G1 F1200.000
G1 X118.354 Y128.293 E0.00618
G1 X118.373 Y128.050 E0.00565
G1 X118.390 Y127.590 E0.00967
G1 X118.388 Y127.121 E0.00849
G1 X118.332 Y126.280 E0.01527
G1 F8640.000
G1 X118.388 Y127.121 E-0.19457
G1 X118.390 Y127.590 E-0.10816
G1 E-0.49727 F2100.00000
G1 Z0.800 F10800.000
G1 X118.105 Y124.902
G1 Z0.200
G1 E0.80000 F2100.00000
G1 F1200.000
G1 X117.990 Y124.427 E0.00379
G1 F8640.000
G1 X118.105 Y124.902 E-0.11278
G1 E-0.68722 F2100.00000
G1 Z0.800 F10800.000
G1 X118.166 Y122.997
G1 Z0.200
G1 E0.80000 F2100.00000
G1 F1200.000
G1 X117.632 Y122.477 E0.02360
G1 X117.426 Y122.369 E0.00735
G1 X117.209 Y122.316 E0.00708
G1 X116.946 Y122.315 E0.00833
G1 X118.028 Y123.397 E0.04843
G1 X118.028 Y123.935 E0.01703
G1 X116.235 Y122.143 E0.08023
G1 X115.899 Y122.348 F10800.000
G1 F1200.000
G1 X115.430 Y122.223 E0.00868
G1 F8640.000
G1 X115.899 Y122.348 E-0.11198
G1 E-0.68802 F2100.00000
G1 Z0.800 F10800.000
G1 X114.053 Y122.002
G1 Z0.200
G1 E0.80000 F2100.00000
G1 F1200.000
G1 X113.654 Y121.969 E0.01009
G1 X113.429 Y121.954 E0.00504
G1 X112.969 Y121.942 E0.00912
G1 X112.501 Y121.950 E0.00839
G1 X111.779 Y122.004 E0.01294
G1 F8640.000
G1 X112.501 Y121.950 E-0.16702
G1 X112.969 Y121.942 E-0.10823
G1 E-0.52475 F2100.00000
G1 Z0.800 F10800.000
G1 X110.417 Y122.225
G1 Z0.200
G1 E0.80000 F2100.00000
G1 F1200.000
G1 X109.943 Y122.346 E0.00664
G1 X109.651 Y122.794 F10800.000
G1 F1200.000
G1 X109.172 Y122.314 E0.02145
G1 X108.635 Y122.316 E0.01699
G1 X109.224 Y122.905 E0.02636
G1 X108.936 Y123.154 E0.01208
G1 X108.241 Y122.460 E0.03109
G1 X108.054 Y122.621 E0.00783
G1 X107.977 Y122.734 E0.00431
G1 X108.668 Y123.425 E0.03093
G1 X108.418 Y123.713 E0.01207
G1 X107.828 Y123.123 E0.02641
G1 X107.826 Y123.659 E0.01697
G1 X108.306 Y124.139 E0.02149
G1 X107.857 Y124.428 F10800.000
G1 F1200.000
G1 X107.738 Y124.905 E0.00563
G1 F8640.000
G1 X107.857 Y124.428 E-0.11350
G1 E-0.68650 F2100.00000
G1 Z0.800 F10800.000
G1 X107.515 Y126.271
G1 Z0.200
G1 E0.80000 F2100.00000
G1 F1200.000
G1 X107.486 Y126.575 E0.00781
G1 X107.460 Y127.036 E0.01072
G1 X107.454 Y127.496 E0.00870
G1 X107.498 Y128.387 E0.01600
G1 X107.675 Y128.519 E0.00397
G1 F8640.000
G1 X107.498 Y128.387 E-0.05114
G1 X107.454 Y127.496 E-0.20595
G1 E-0.54291 F2100.00000
G1 Z0.800 F10800.000
G1 X107.669 Y131.781
G1 Z0.200
G1 E0.80000 F2100.00000
G1 F1200.000
G1 X108.244 Y132.356 E0.02904
G1 X108.324 Y132.411 E0.00346
G1 X108.636 Y132.506 E0.01164
G1 X109.002 Y132.507 E0.01305
G1 X107.826 Y131.331 E0.05933
G1 X107.824 Y130.723 E0.02172
G1 X109.779 Y132.677 E0.09859
G1 X109.941 Y132.481 F10800.000
G1 F1200.000
G1 X110.410 Y132.590 E0.00273
G1 F8640.000
G1 X109.941 Y132.481 E-0.11131
G1 E-0.68869 F2100.00000
G1 Z0.800 F10800.000
G1 X111.073 Y134.342
G1 Z0.200
G1 E0.80000 F2100.00000
G1 F1200.000
G1 X111.247 Y134.516 E0.00787
G1 X111.790 Y134.516 E0.01737
G1 X111.242 Y133.968 E0.02477
G1 X111.242 Y133.424 E0.01737
G1 X112.334 Y134.516 E0.04934
G1 X112.878 Y134.516 E0.01737
G1 X111.398 Y133.036 E0.06687
G1 X111.699 Y133.114 E0.00993
G1 X112.086 Y133.180 E0.01254
G1 X113.421 Y134.516 E0.06036
G1 X113.603 Y134.516 E0.00580
G1 X113.603 Y134.154 E0.01157
G1 X112.686 Y133.238 E0.04142
G1 X113.226 Y133.234 E0.01725
G1 X113.772 Y133.780 E0.02469
G1 F8640.000
G1 X113.226 Y133.234 E-0.17840
G1 X112.686 Y133.238 E-0.12465
G1 X113.603 Y134.154 E-0.29926
G1 X113.603 Y134.516 E-0.08358
G1 X113.421 Y134.516 E-0.04193
G1 X113.323 Y134.417 E-0.03218
G1 E-0.04000 F2100.00000
G1 Z0.800 F10800.000
G1 X134.548 Y126.576
G1 Z0.200
G1 E0.80000 F2100.00000
G1 F1200.000
G1 X134.414 Y126.179 E0.01314
G1 X134.365 Y125.762 E0.01318
G1 X134.405 Y125.343 E0.01318
G1 X134.530 Y124.942 E0.01318
G1 X134.736 Y124.576 E0.01318
G1 X135.015 Y124.259 E0.01322
G1 X135.389 Y123.987 E0.01450
G1 X135.776 Y123.820 E0.01322
G1 X136.188 Y123.737 E0.01318
G1 X136.607 Y123.742 E0.01314
G1 X136.977 Y123.821 E0.01186
G1 X137.362 Y123.987 E0.01314
G1 X137.705 Y124.230 E0.01318
G1 X137.989 Y124.539 E0.01318
G1 X138.204 Y124.901 E0.01318
G1 X138.338 Y125.299 E0.01318
G1 X138.387 Y125.717 E0.01318
G1 X138.347 Y126.135 E0.01318
G1 X138.222 Y126.537 E0.01318
G1 X138.016 Y126.903 E0.01318
G1 X137.737 Y127.219 E0.01322
G1 X137.363 Y127.491 E0.01450
G1 X136.976 Y127.658 E0.01322
G1 X136.564 Y127.741 E0.01318
G1 X136.144 Y127.737 E0.01318
G1 X135.733 Y127.645 E0.01318
G1 X135.351 Y127.469 E0.01318
G1 X135.014 Y127.219 E0.01318
G1 X134.737 Y126.904 E0.01314
G1 X134.578 Y126.628 E0.00997
G1 X134.150 Y126.538 F10800.000
G1 F8640.000
G1 X134.414 Y126.179 E-0.11041
