; generated by PrusaSlicer 2.2.0+win64 on 2020-08-17 at 23:42:19 UTC

; 

; external perimeters extrusion width = 0.45mm
; perimeters extrusion width = 0.45mm
; infill extrusion width = 0.45mm
; solid infill extrusion width = 0.45mm
; top infill extrusion width = 0.40mm
; first layer extrusion width = 0.42mm

M73 P0 R3
M73 Q0 S3
M201 X1000 Y1000 Z200 E5000 ; sets maximum accelerations, mm/sec^2
M203 X200 Y200 Z12 E120 ; sets maximum feedrates, mm/sec
M204 P1250 R1250 T1250 ; sets acceleration (P, T) and retract acceleration (R), mm/sec^2
M205 X8.00 Y8.00 Z0.40 E4.50 ; sets the jerk limits, mm/sec
M205 S0 T0 ; sets the minimum extruding and travel feed rate, mm/sec
M107
M862.3 P "MK3SMMU2S" ; printer model check
M862.1 P0.4 ; nozzle diameter check
M115 U3.9.0 ; tell printer latest fw version
G90 ; use absolute coordinates
M83 ; extruder relative mode
M104 S215 ; set extruder temp
M140 S60 ; set bed temp
Tx
M190 S60 ; wait for bed temp
M109 S215 ; wait for extruder temp
G28 W ; home all without mesh bed level
G80 ; mesh bed leveling

;go outside print area
G1 Y-3.0 F1000.0
G1 Z0.4 F1000.0
; select extruder
Tc
; purge line
G1 X55.0 F2000.0
G1 Z0.3 F1000.0
G92 E0.0
G1 X240.0 E25.0 F2200.0
M73 Q4 S3
M73 P4 R3
G1 Y-2.0 F1000.0
G1 X55.0 E25 F1400.0
G1 Z0.20 F1000.0
G1 X5.0 E4.0 F1000.0

M221 S95
G92 E0.0
G21 ; set units to millimeters
G90 ; use absolute coordinates
M83 ; use relative distances for extrusion
M900 K0.06 ; Filament gcode LA 1.5
M900 K30 ; Filament gcode LA 1.0
;BEFORE_LAYER_CHANGE
G92 E0.0
;0.2


G1 E-0.80000 F2100.00000
G1 Z0.600 F10800.000
;AFTER_LAYER_CHANGE
;0.2
G1 X114.502 Y70.986
G1 Z0.200
G1 E0.80000 F2100.00000
M204 S1000
G1 F902
G1 X114.974 Y70.198 E0.02879
G1 X115.376 Y69.814 E0.01745
G1 X115.848 Y69.518 E0.01745
G1 X116.369 Y69.323 E0.01745
G1 X116.919 Y69.238 E0.01745
G1 X133.072 Y69.234 E0.50645
G1 X134.061 Y69.419 E0.03157
G1 X134.915 Y69.945 E0.03145
G1 X135.526 Y70.746 E0.03157
G1 X135.808 Y71.709 E0.03145
G1 X135.820 Y88.086 E0.51350
G1 X135.635 Y88.985 E0.02879
G1 X135.161 Y89.777 E0.02892
G1 X134.736 Y90.179 E0.01835
G1 X134.239 Y90.480 E0.01822
G1 X133.686 Y90.671 E0.01835
G1 X133.109 Y90.742 E0.01822
G1 X116.965 Y90.740 E0.50619
G1 X116.066 Y90.553 E0.02879
G1 X115.278 Y90.081 E0.02879
G1 X114.876 Y89.656 E0.01835
G1 X114.575 Y89.159 E0.01822
G1 X114.384 Y88.606 E0.01835
G1 X114.314 Y88.029 E0.01822
G1 X114.315 Y71.885 E0.50619
G1 X114.490 Y71.045 E0.02691
G1 F8640.000
G1 X114.974 Y70.198 E-0.22514
G1 X115.376 Y69.814 E-0.12853
G1 X115.848 Y69.518 E-0.12853
G1 X116.369 Y69.323 E-0.12853
G1 X116.919 Y69.238 E-0.12853
G1 X117.009 Y69.237 E-0.02073
G1 E-0.04000 F2100.00000
G1 Z0.800 F10800.000
G1 X116.036 Y69.846
G1 Z0.200
G1 E0.80000 F2100.00000
G1 F902
G1 X116.960 Y69.613 E0.02989
G1 X133.071 Y69.611 E0.50516
G1 X133.928 Y69.772 E0.02731
G1 X134.671 Y70.233 E0.02743
G1 X135.197 Y70.932 E0.02743
G1 X135.435 Y71.774 E0.02743
G1 X135.443 Y88.064 E0.51077
G1 X135.280 Y88.858 E0.02543
G1 X134.861 Y89.548 E0.02532
G1 X134.496 Y89.888 E0.01562
G1 X134.065 Y90.145 E0.01574
G1 X133.594 Y90.306 E0.01562
G1 X133.095 Y90.365 E0.01574
G1 X116.988 Y90.363 E0.50505
G1 X116.197 Y90.200 E0.02532
G1 X115.507 Y89.781 E0.02532
G1 X115.168 Y89.416 E0.01562
G1 X114.910 Y88.985 E0.01574
G1 X114.749 Y88.514 E0.01562
G1 X114.691 Y88.015 E0.01574
G1 X114.692 Y71.908 E0.50505
G1 X114.856 Y71.117 E0.02532
G1 X115.275 Y70.427 E0.02532
G1 X115.988 Y69.883 E0.02813
G1 F8640.000
G1 X116.960 Y69.613 E-0.23293
G1 X119.243 Y69.613 E-0.52707
G1 E-0.04000 F2100.00000
G1 Z0.800 F10800.000
G1 X117.358 Y72.278
G1 Z0.200
G1 E0.80000 F2100.00000
G1 F902
G1 X132.778 Y72.278 E0.48348
G1 X132.778 Y87.698 E0.48348
G1 X117.358 Y87.698 E0.48348
G1 X117.358 Y72.338 E0.48160
G1 X117.254 Y71.891 F10800.000
G1 X117.278 Y72.338
G1 F902
G1 X117.278 Y72.198 E0.00439
G1 X132.858 Y72.198 E0.48850
G1 X132.858 Y87.778 E0.48850
G1 X117.278 Y87.778 E0.48850
G1 X117.278 Y72.398 E0.48223
G1 X117.376 Y72.239 F10800.000
M106 S255
;BEFORE_LAYER_CHANGE
G92 E0.0
;0.35


G1 F8640.000
G1 X117.278 Y72.198 E-0.04618
G1 X120.369 Y72.198 E-0.71382
G1 E-0.04000 F2100.00000
G1 Z0.800 F10800.000
;AFTER_LAYER_CHANGE
;0.35
G1 X114.502 Y70.986
G1 Z0.350
G1 E0.80000 F2100.00000
G1 F900
G1 X114.974 Y70.198 E0.02221
G1 X115.376 Y69.814 E0.01346
G1 X115.848 Y69.518 E0.01346
G1 X116.369 Y69.323 E0.01346
G1 X116.919 Y69.238 E0.01346
G1 X133.072 Y69.234 E0.39064
G1 X134.061 Y69.419 E0.02435
G1 X134.915 Y69.945 E0.02426
G1 X135.526 Y70.746 E0.02435
G1 X135.808 Y71.709 E0.02426
G1 X135.820 Y88.086 E0.39609
G1 X135.635 Y88.985 E0.02221
G1 X135.161 Y89.777 E0.02230
G1 X134.736 Y90.179 E0.01415
G1 X134.239 Y90.480 E0.01405
G1 X133.686 Y90.671 E0.01415
G1 X133.109 Y90.742 E0.01405
G1 X116.965 Y90.740 E0.39045
G1 X116.066 Y90.553 E0.02221
G1 X115.278 Y90.081 E0.02221
G1 X114.876 Y89.656 E0.01415
G1 X114.575 Y89.159 E0.01405
G1 X114.384 Y88.606 E0.01415
G1 X114.314 Y88.029 E0.01405
G1 X114.315 Y71.885 E0.39045
G1 X114.490 Y71.045 E0.02076
G1 F8640.000
G1 X114.974 Y70.198 E-0.22514
G1 X115.376 Y69.814 E-0.12853
G1 X115.848 Y69.518 E-0.12853
G1 X116.369 Y69.323 E-0.12853
G1 X116.919 Y69.238 E-0.12853
G1 X117.009 Y69.237 E-0.02073
G1 E-0.04000 F2100.00000
G1 Z0.950 F10800.000
G1 X116.036 Y69.846
G1 Z0.350
G1 E0.80000 F2100.00000
G1 F900
G1 X116.960 Y69.613 E0.02306
G1 X133.071 Y69.611 E0.38965
G1 X133.928 Y69.772 E0.02107
G1 X134.671 Y70.233 E0.02116
G1 X135.197 Y70.932 E0.02116
G1 X135.435 Y71.774 E0.02116
G1 X135.443 Y88.064 E0.39398
G1 X135.280 Y88.858 E0.01962
G1 X134.861 Y89.548 E0.01953
G1 X134.496 Y89.888 E0.01205
G1 X134.065 Y90.145 E0.01214
G1 X133.594 Y90.306 E0.01205
G1 X133.095 Y90.365 E0.01214
G1 X116.988 Y90.363 E0.38956
G1 X116.197 Y90.200 E0.01953
G1 X115.507 Y89.781 E0.01953
G1 X115.168 Y89.416 E0.01205
G1 X114.910 Y88.985 E0.01214
G1 X114.749 Y88.514 E0.01205
G1 X114.691 Y88.015 E0.01214
G1 X114.692 Y71.908 E0.38956
G1 X114.856 Y71.117 E0.01953
G1 X115.275 Y70.427 E0.01953
G1 X115.988 Y69.883 E0.02170
G1 F8640.000
G1 X116.960 Y69.613 E-0.23293
G1 X119.243 Y69.613 E-0.52707
G1 E-0.04000 F2100.00000
G1 Z0.950 F10800.000
G1 X117.343 Y72.263
G1 Z0.350
G1 E0.80000 F2100.00000
M204 S800
G1 F900
G1 X132.793 Y72.263 E0.40256
G1 X132.793 Y87.713 E0.40256
G1 X117.343 Y87.713 E0.40256
G1 X117.343 Y72.323 E0.40100
M204 S1000
G1 X117.239 Y71.876 F10800.000
G1 X117.293 Y72.323
M204 S800
G1 F900
G1 X117.293 Y72.213 E0.00287
G1 X132.843 Y72.213 E0.40517
G1 X132.843 Y87.763 E0.40517
G1 X117.293 Y87.763 E0.40517
G1 X117.293 Y72.383 E0.40074
M204 S1000
G1 X117.370 Y72.245 F10800.000
;BEFORE_LAYER_CHANGE
G92 E0.0
;0.5


G1 F8640.000
G1 X117.293 Y72.213 E-0.03925
G1 X120.414 Y72.213 E-0.72075
G1 E-0.04000 F2100.00000
G1 Z0.950 F10800.000
;AFTER_LAYER_CHANGE
;0.5
G1 X114.502 Y70.986
G1 Z0.500
G1 E0.80000 F2100.00000
G1 F900
G1 X114.974 Y70.198 E0.02221
G1 X115.376 Y69.814 E0.01346
G1 X115.848 Y69.518 E0.01346
G1 X116.369 Y69.323 E0.01346
G1 X116.919 Y69.238 E0.01346
G1 X133.072 Y69.234 E0.39064
G1 X134.061 Y69.419 E0.02435
G1 X134.915 Y69.945 E0.02426
G1 X135.526 Y70.746 E0.02435
G1 X135.808 Y71.709 E0.02426
G1 X135.820 Y88.086 E0.39609
G1 X135.635 Y88.985 E0.02221
G1 X135.161 Y89.777 E0.02230
G1 X134.736 Y90.179 E0.01415
G1 X134.239 Y90.480 E0.01405
G1 X133.686 Y90.671 E0.01415
G1 X133.109 Y90.742 E0.01405
G1 X116.965 Y90.740 E0.39045
G1 X116.066 Y90.553 E0.02221
G1 X115.278 Y90.081 E0.02221
G1 X114.876 Y89.656 E0.01415
G1 X114.575 Y89.159 E0.01405
G1 X114.384 Y88.606 E0.01415
G1 X114.314 Y88.029 E0.01405
G1 X114.315 Y71.885 E0.39045
G1 X114.490 Y71.045 E0.02076
G1 F8640.000
G1 X114.974 Y70.198 E-0.22514
G1 X115.376 Y69.814 E-0.12853
G1 X115.848 Y69.518 E-0.12853
G1 X116.369 Y69.323 E-0.12853
G1 X116.919 Y69.238 E-0.12853
G1 X117.009 Y69.237 E-0.02073
G1 E-0.04000 F2100.00000
G1 Z1.100 F10800.000
G1 X116.036 Y69.846
G1 Z0.500
G1 E0.80000 F2100.00000
G1 F900
G1 X116.960 Y69.613 E0.02306
G1 X133.071 Y69.611 E0.38965
M73 Q38 S2
G1 X133.928 Y69.772 E0.02107
G1 X134.671 Y70.233 E0.02116
G1 X135.197 Y70.932 E0.02116
G1 X135.435 Y71.774 E0.02116
M73 P38 R2
G1 X135.443 Y88.064 E0.39398
G1 X135.280 Y88.858 E0.01962
G1 X134.861 Y89.548 E0.01953
G1 X134.496 Y89.888 E0.01205
G1 X134.065 Y90.145 E0.01214
G1 X133.594 Y90.306 E0.01205
G1 X133.095 Y90.365 E0.01214
G1 X116.988 Y90.363 E0.38956
G1 X116.197 Y90.200 E0.01953
G1 X115.507 Y89.781 E0.01953
G1 X115.168 Y89.416 E0.01205
G1 X114.910 Y88.985 E0.01214
G1 X114.749 Y88.514 E0.01205
G1 X114.691 Y88.015 E0.01214
G1 X114.692 Y71.908 E0.38956
G1 X114.856 Y71.117 E0.01953
G1 X115.275 Y70.427 E0.01953
G1 X115.988 Y69.883 E0.02170
G1 F8640.000
G1 X116.960 Y69.613 E-0.23293
G1 X119.243 Y69.613 E-0.52707
G1 E-0.04000 F2100.00000
G1 Z1.100 F10800.000
G1 X117.343 Y72.263
G1 Z0.500
G1 E0.80000 F2100.00000
M204 S800
G1 F900
G1 X132.793 Y72.263 E0.40256
G1 X132.793 Y87.713 E0.40256
G1 X117.343 Y87.713 E0.40256
G1 X117.343 Y72.323 E0.40100
M204 S1000
G1 X117.239 Y71.876 F10800.000
G1 X117.293 Y72.323
M204 S800
G1 F900
G1 X117.293 Y72.213 E0.00287
G1 X132.843 Y72.213 E0.40517
G1 X132.843 Y87.763 E0.40517
G1 X117.293 Y87.763 E0.40517
G1 X117.293 Y72.383 E0.40074
M204 S1000
G1 X117.370 Y72.245 F10800.000
;BEFORE_LAYER_CHANGE
G92 E0.0
;0.65


G1 F8640.000
G1 X117.293 Y72.213 E-0.03925
G1 X120.414 Y72.213 E-0.72075
G1 E-0.04000 F2100.00000
G1 Z1.100 F10800.000
;AFTER_LAYER_CHANGE
;0.65
G1 X117.343 Y72.263
G1 Z0.650
G1 E0.80000 F2100.00000
M204 S800
G1 F900
G1 X132.793 Y72.263 E0.40256
G1 X132.793 Y87.713 E0.40256
G1 X117.343 Y87.713 E0.40256
G1 X117.343 Y72.323 E0.40100
M204 S1000
G1 X117.239 Y71.876 F10800.000
G1 X117.293 Y72.323
M204 S800
G1 F900
G1 X117.293 Y72.213 E0.00287
G1 X132.843 Y72.213 E0.40517
G1 X132.843 Y87.763 E0.40517
G1 X117.293 Y87.763 E0.40517
G1 X117.293 Y72.383 E0.40074
M204 S1000
G1 X117.370 Y72.245 F10800.000
;BEFORE_LAYER_CHANGE
G92 E0.0
;0.8


G1 F8640.000
G1 X117.293 Y72.213 E-0.03925
G1 X120.414 Y72.213 E-0.72075
G1 E-0.04000 F2100.00000
G1 Z1.250 F10800.000
;AFTER_LAYER_CHANGE
;0.8
G1 X117.343 Y72.263
G1 Z0.800
G1 E0.80000 F2100.00000
M204 S800
G1 F900
G1 X132.793 Y72.263 E0.40256
G1 X132.793 Y87.713 E0.40256
G1 X117.343 Y87.713 E0.40256
G1 X117.343 Y72.323 E0.40100
M204 S1000
G1 X117.239 Y71.876 F10800.000
G1 X117.293 Y72.323
M204 S800
G1 F900
G1 X117.293 Y72.213 E0.00287
G1 X132.843 Y72.213 E0.40517
G1 X132.843 Y87.763 E0.40517
G1 X117.293 Y87.763 E0.40517
G1 X117.293 Y72.383 E0.40074
M204 S1000
G1 X117.370 Y72.245 F10800.000
;BEFORE_LAYER_CHANGE
G92 E0.0
;0.95


G1 F8640.000
G1 X117.293 Y72.213 E-0.03925
G1 X120.414 Y72.213 E-0.72075
G1 E-0.04000 F2100.00000
G1 Z1.400 F10800.000
;AFTER_LAYER_CHANGE
;0.95
G1 X117.343 Y72.263
G1 Z0.950
G1 E0.80000 F2100.00000
M204 S800
G1 F900
G1 X132.793 Y72.263 E0.40256
G1 X132.793 Y87.713 E0.40256
G1 X117.343 Y87.713 E0.40256
G1 X117.343 Y72.323 E0.40100
M204 S1000
G1 X117.239 Y71.876 F10800.000
G1 X117.293 Y72.323
M204 S800
G1 F900
G1 X117.293 Y72.213 E0.00287
G1 X132.843 Y72.213 E0.40517
G1 X132.843 Y87.763 E0.40517
G1 X117.293 Y87.763 E0.40517
G1 X117.293 Y72.383 E0.40074
M204 S1000
G1 X117.370 Y72.245 F10800.000
;BEFORE_LAYER_CHANGE
G92 E0.0
;1.1


G1 F8640.000
G1 X117.293 Y72.213 E-0.03925
G1 X120.414 Y72.213 E-0.72075
G1 E-0.04000 F2100.00000
G1 Z1.550 F10800.000
;AFTER_LAYER_CHANGE
;1.1
G1 X117.343 Y72.263
G1 Z1.100
G1 E0.80000 F2100.00000
M204 S800
G1 F900
G1 X132.793 Y72.263 E0.40256
G1 X132.793 Y87.713 E0.40256
G1 X117.343 Y87.713 E0.40256
G1 X117.343 Y72.323 E0.40100
M204 S1000
G1 X117.239 Y71.876 F10800.000
G1 X117.293 Y72.323
M204 S800
G1 F900
G1 X117.293 Y72.213 E0.00287
G1 X132.843 Y72.213 E0.40517
G1 X132.843 Y87.763 E0.40517
G1 X117.293 Y87.763 E0.40517
G1 X117.293 Y72.383 E0.40074
M204 S1000
G1 X117.370 Y72.245 F10800.000
;BEFORE_LAYER_CHANGE
G92 E0.0
;1.25


G1 F8640.000
G1 X117.293 Y72.213 E-0.03925
G1 X120.414 Y72.213 E-0.72075
G1 E-0.04000 F2100.00000
G1 Z1.700 F10800.000
;AFTER_LAYER_CHANGE
;1.25
G1 X117.343 Y72.263
G1 Z1.250
G1 E0.80000 F2100.00000
M204 S800
G1 F900
G1 X132.793 Y72.263 E0.40256
G1 X132.793 Y87.713 E0.40256
G1 X117.343 Y87.713 E0.40256
G1 X117.343 Y72.323 E0.40100
M204 S1000
G1 X117.239 Y71.876 F10800.000
G1 X117.293 Y72.323
M204 S800
G1 F900
G1 X117.293 Y72.213 E0.00287
G1 X132.843 Y72.213 E0.40517
G1 X132.843 Y87.763 E0.40517
G1 X117.293 Y87.763 E0.40517
G1 X117.293 Y72.383 E0.40074
M204 S1000
G1 X117.370 Y72.245 F10800.000
;BEFORE_LAYER_CHANGE
G92 E0.0
;1.4


G1 F8640.000
G1 X117.293 Y72.213 E-0.03925
G1 X120.414 Y72.213 E-0.72075
G1 E-0.04000 F2100.00000
G1 Z1.850 F10800.000
;AFTER_LAYER_CHANGE
;1.4
G1 X117.343 Y72.263
G1 Z1.400
G1 E0.80000 F2100.00000
M204 S800
G1 F900
G1 X132.793 Y72.263 E0.40256
G1 X132.793 Y87.713 E0.40256
G1 X117.343 Y87.713 E0.40256
M73 Q73 S1
M73 P73 R1
G1 X117.343 Y72.323 E0.40100
M204 S1000
G1 X117.239 Y71.876 F10800.000
G1 X117.293 Y72.323
M204 S800
G1 F900
G1 X117.293 Y72.213 E0.00287
G1 X132.843 Y72.213 E0.40517
G1 X132.843 Y87.763 E0.40517
G1 X117.293 Y87.763 E0.40517
G1 X117.293 Y72.383 E0.40074
M204 S1000
G1 X117.370 Y72.245 F10800.000
;BEFORE_LAYER_CHANGE
G92 E0.0
;1.55


G1 F8640.000
G1 X117.293 Y72.213 E-0.03925
G1 X120.414 Y72.213 E-0.72075
G1 E-0.04000 F2100.00000
G1 Z2.000 F10800.000
;AFTER_LAYER_CHANGE
;1.55
G1 X117.343 Y72.263
G1 Z1.550
G1 E0.80000 F2100.00000
M204 S800
G1 F900
G1 X132.793 Y72.263 E0.40256
G1 X132.793 Y87.713 E0.40256
G1 X117.343 Y87.713 E0.40256
G1 X117.343 Y72.323 E0.40100
M204 S1000
G1 X117.239 Y71.876 F10800.000
G1 X117.293 Y72.323
M204 S800
G1 F900
G1 X117.293 Y72.213 E0.00287
G1 X132.843 Y72.213 E0.40517
G1 X132.843 Y87.763 E0.40517
G1 X117.293 Y87.763 E0.40517
G1 X117.293 Y72.383 E0.40074
M204 S1000
G1 X117.370 Y72.245 F10800.000
;BEFORE_LAYER_CHANGE
G92 E0.0
;1.7


G1 F8640.000
G1 X117.293 Y72.213 E-0.03925
G1 X120.414 Y72.213 E-0.72075
G1 E-0.04000 F2100.00000
G1 Z2.150 F10800.000
;AFTER_LAYER_CHANGE
;1.7
G1 X117.343 Y72.263
G1 Z1.700
G1 E0.80000 F2100.00000
M204 S800
G1 F900
G1 X132.793 Y72.263 E0.40256
G1 X132.793 Y87.713 E0.40256
G1 X117.343 Y87.713 E0.40256
G1 X117.343 Y72.323 E0.40100
M204 S1000
G1 X117.239 Y71.876 F10800.000
G1 X117.293 Y72.323
M204 S800
G1 F900
G1 X117.293 Y72.213 E0.00287
G1 X132.843 Y72.213 E0.40517
G1 X132.843 Y87.763 E0.40517
G1 X117.293 Y87.763 E0.40517
G1 X117.293 Y72.383 E0.40074
M204 S1000
G1 X117.370 Y72.245 F10800.000
;BEFORE_LAYER_CHANGE
G92 E0.0
;1.85


G1 F8640.000
G1 X117.293 Y72.213 E-0.03925
G1 X120.414 Y72.213 E-0.72075
G1 E-0.04000 F2100.00000
G1 Z2.300 F10800.000
;AFTER_LAYER_CHANGE
;1.85
G1 X117.343 Y72.263
G1 Z1.850
G1 E0.80000 F2100.00000
M204 S800
G1 F900
G1 X132.793 Y72.263 E0.40256
G1 X132.793 Y87.713 E0.40256
G1 X117.343 Y87.713 E0.40256
G1 X117.343 Y72.323 E0.40100
M204 S1000
G1 X117.239 Y71.876 F10800.000
G1 X117.293 Y72.323
M204 S800
G1 F900
G1 X117.293 Y72.213 E0.00287
G1 X132.843 Y72.213 E0.40517
G1 X132.843 Y87.763 E0.40517
G1 X117.293 Y87.763 E0.40517
G1 X117.293 Y72.383 E0.40074
M204 S1000
G1 X117.370 Y72.245 F10800.000
;BEFORE_LAYER_CHANGE
G92 E0.0
;2


G1 F8640.000
G1 X117.293 Y72.213 E-0.03925
G1 X120.414 Y72.213 E-0.72075
G1 E-0.04000 F2100.00000
G1 Z2.450 F10800.000
;AFTER_LAYER_CHANGE
;2
G1 X117.343 Y72.263
G1 Z2.000
G1 E0.80000 F2100.00000
M204 S800
G1 F900
G1 X132.793 Y72.263 E0.40256
G1 X132.793 Y87.713 E0.40256
G1 X117.343 Y87.713 E0.40256
G1 X117.343 Y72.323 E0.40100
M204 S1000
G1 X117.239 Y71.876 F10800.000
G1 X117.293 Y72.323
M204 S800
G1 F900
G1 X117.293 Y72.213 E0.00287
G1 X132.843 Y72.213 E0.40517
G1 X132.843 Y87.763 E0.40517
G1 X117.293 Y87.763 E0.40517
G1 X117.293 Y72.383 E0.40074
M204 S1000
G1 X117.370 Y72.245 F10800.000
G1 F8640.000;_WIPE
G1 X117.293 Y72.213 E-0.03925
G1 F8640.000;_WIPE
G1 X120.414 Y72.213 E-0.72075
G1 E-0.04000 F2100.00000
G1 Z2.600 F10800.000
M107
; Filament-specific end gcode
G1 Z12.6 F720 ; Move print head up
G1 X0 Y210 F7200
G1 E2 F5000
G1 E2 F5500
G1 E2 F6000
G1 E-15.0000 F5800
G1 E-20.0000 F5500
G1 E10.0000 F3000
G1 E-10.0000 F3100
G1 E10.0000 F3150
G1 E-10.0000 F3250
G1 E10.0000 F3300

M140 S0 ; turn off heatbed
M107 ; turn off fan
M702 C
G4 ; wait
M221 S100 ; reset flow
